X:11
T:Trip to Canterbury
M:6/8
K:G
D|"G"D>EF G>AB|"Am"c>ed "D"cBA|"Em"BGE "G"DGG|"D7"B>cA "G"G2D|"G"D>EF\
"Em"G>AB|"Am"c>ed "D"cBA|
"Em"BGE "G"DGG|"D7"B>cA "G"G2::c|"G"B2c d3|"C"e2c "G"dBG|B>ce\
"C"e>fg|"A7"GAG "D"FED|
"C"Cec "G"B,dB|"Am"A>GA "Em"BGE|"C"GFE "G"Ddc|"D7"B>cA "G"G2:|

